22x22/apps/appimagekit-listen.moe-desktop-app.svg

<svg xmlns="http://www.w3.org/2000/svg" width="22" height="22" version="1.1">
 <rect style="opacity:0.2" width="20" height="20" x="1" y="1.5" rx="1" ry="1"/>
 <rect style="fill:#3b3f4d" width="20" height="20" x="1" y="1" rx="1" ry="1"/>
 <path style="opacity:0.1;fill:#f4f4f7" d="M 2,1 C 1.446,1 1,1.446 1,2 v 0.5 c 0,-0.554 0.446,-1 1,-1 h 18 c 0.554,0 1,0.446 1,1 V 2 C 21,1.446 20.554,1 20,1 Z"/>
 <path style="opacity:0.2" d="M 6.25,6.5 C 6.1115,6.5 6,6.6115 6,6.75 v 1 5.5 c 0,0.1385 0.1115,0.25 0.25,0.25 h 1.5 C 7.8885,13.5 8.0029151,13.388469 8,13.25 V 8.5 H 9.75 C 9.8885,8.5 10,8.3885 10,8.25 V 6.75 C 10,6.6115 9.8885,6.5 9.75,6.5 h -2.5 z m 8,3 C 14.1115,9.5 13.997085,9.611531 14,9.75 V 14.5 H 12.25 C 12.1115,14.5 12,14.6115 12,14.75 v 1.5 c 0,0.1385 0.1115,0.25 0.25,0.25 h 2.5 1 c 0.1385,0 0.25,-0.1115 0.25,-0.25 v -1 -5.5 C 16,9.6115 15.8885,9.5 15.75,9.5 Z"/>
 <path style="fill:#f4f4f7" d="M 6.25,6 C 6.1115,6 6,6.1115 6,6.25 v 1 5.5 C 6,12.8885 6.1115,13 6.25,13 h 1.5 C 7.8885,13 8.0029151,12.888469 8,12.75 V 8 H 9.75 C 9.8885,8 10,7.8885 10,7.75 V 6.25 C 10,6.1115 9.8885,6 9.75,6 h -2.5 z"/>
 <path style="fill:#ec1a55" d="M 15.75,16 C 15.8885,16 16,15.8885 16,15.75 v -1 -5.5 C 16,9.1115 15.8885,9 15.75,9 h -1.5 C 14.1115,9 13.997085,9.111531 14,9.25 V 14 H 12.25 C 12.1115,14 12,14.1115 12,14.25 v 1.5 c 0,0.1385 0.1115,0.25 0.25,0.25 h 2.5 z"/>
</svg>

<svg xmlns="http://www.w3.org/2000/svg" width="22" height="22"><rect style="opacity:.2" width="20" height="20" x="1" y="1.5" rx="1" ry="1"/><rect style="fill:#3b3f4d" width="20" height="20" x="1" y="1" rx="1" ry="1"/><path style="opacity:.1;fill:#f4f4f7" d="M2 1c-.554 0-1 .446-1 1v.5c0-.554.446-1 1-1h18c.554 0 1 .446 1 1V2c0-.554-.446-1-1-1z"/><path style="opacity:.2" d="M6.25 6.5a.25.25 0 0 0-.25.25v6.5c0 .139.112.25.25.25h1.5a.248.248 0 0 0 .25-.25V8.5h1.75a.25.25 0 0 0 .25-.25v-1.5a.25.25 0 0 0-.25-.25h-2.5zm8 3a.248.248 0 0 0-.25.25v4.75h-1.75a.25.25 0 0 0-.25.25v1.5c0 .139.112.25.25.25h3.5a.25.25 0 0 0 .25-.25v-6.5a.25.25 0 0 0-.25-.25z"/><path style="fill:#f4f4f7" d="M6.25 6a.25.25 0 0 0-.25.25v6.5c0 .139.112.25.25.25h1.5a.248.248 0 0 0 .25-.25V8h1.75a.25.25 0 0 0 .25-.25v-1.5A.25.25 0 0 0 9.75 6h-2.5z"/><path style="fill:#ec1a55" d="M15.75 16a.25.25 0 0 0 .25-.25v-6.5a.25.25 0 0 0-.25-.25h-1.5a.248.248 0 0 0-.25.25V14h-1.75a.25.25 0 0 0-.25.25v1.5c0 .139.112.25.25.25h2.5z"/></svg>
